modules/hawcons-stroke/icons/middle-finger.svg

<?xml version="1.0" encoding="UTF-8" standalone="no"?>
<svg width="32px" height="32px" viewBox="0 0 32 32" version="1.1" xmlns="http://www.w3.org/2000/svg" xmlns:xlink="http://www.w3.org/1999/xlink" xmlns:sketch="http://www.bohemiancoding.com/sketch/ns">
    <!-- Generator: Sketch 3.0.3 (7891) - http://www.bohemiancoding.com/sketch -->
    <title>icon 1 middle finger</title>
    <desc>Created with Sketch.</desc>
    <defs></defs>
    <g id="Page-1" stroke="none" stroke-width="1" fill="none" fill-rule="evenodd" sketch:type="MSPage">
        <g id="icon-1-middle-finger" sketch:type="MSArtboardGroup" fill="#929292">
            <path d="M28,21.5 C28,26.1944206 24.1944206,30 19.5,30.0000003 C16.3870848,30.0000003 13.101807,28.5474856 10.8408204,24.4282229 C7.57733174,18.4825159 3.40385286,14.5832077 5.39111327,12.5959473 C6.81276236,11.1742982 9.04484162,12.5381668 11,14.3667868 L11,14.3667868 L11,13.4976267 C11,12.1276884 12.1192881,11 13.5,11 C14.0648583,11 14.5833887,11.1845728 15,11.4962455 L15,4.50345613 C15,3.11760258 16.1192881,2 17.5,2 C18.8903379,2 20,3.12083549 20,4.50345613 L20,12.5021366 C20.4178303,12.1873681 20.937197,12 21.5,12 C22.580801,12 23.4919903,12.6757408 23.8441433,13.6246145 C24.2851261,13.2351097 24.8649075,13 25.5,13 C26.8903379,13 28,14.1212163 28,15.5043068 L28,21.5 L28,21.5 Z M19.5,29 C15.7402849,28.9995418 13.5099958,26.9488875 11.7473755,23.9830936 C7.83536199,17.4007216 5.03386293,14.3887562 6.12103271,13.2957153 C7.23162978,12.1791206 9.94160039,14.5979243 12,16.7983451 L12,13.497101 C12,12.671656 12.6715729,12 13.5,12 C14.3342028,12 15,12.670275 15,13.497101 L15,16 L16,16 L16,4.49089813 C16,3.67622006 16.6715729,3 17.5,3 C18.3342028,3 19,3.66749783 19,4.49089813 L19,15 L20,15 L20,14.497101 C20,13.671656 20.6715729,13 21.5,13 C22.3342028,13 23,13.670275 23,14.497101 L23,16 L24,16 L24,15.5016756 C24,14.6711894 24.6715729,14 25.5,14 C26.3342028,14 27,14.6723231 27,15.5016756 L27,17.7491622 L27,21.5 C27,25.6421358 23.6421358,29 19.5,29 L19.5,29 Z" id="middle-finger" sketch:type="MSShapeGroup"></path>
        </g>
    </g>
</svg>

<svg width="32" height="32" xmlns="http://www.w3.org/2000/svg"><path d="M28 21.5a8.5 8.5 0 0 1-8.5 8.5c-3.113 0-6.398-1.453-8.66-5.572-3.263-5.945-7.436-9.845-5.449-11.832 1.422-1.422 3.654-.058 5.609 1.77v-.868a2.505 2.505 0 0 1 4-2.002V4.503a2.5 2.5 0 1 1 5 0v8A2.485 2.485 0 0 1 21.5 12c1.08 0 1.992.676 2.344 1.625A2.492 2.492 0 0 1 25.5 13c1.39 0 2.5 1.121 2.5 2.504V21.5zM19.5 29c-3.76 0-5.99-2.051-7.753-5.017-3.912-6.582-6.713-9.594-5.626-10.687 1.11-1.117 3.82 1.302 5.879 3.502v-3.3A1.5 1.5 0 0 1 13.5 12c.834 0 1.5.67 1.5 1.497V16h1V4.49a1.501 1.501 0 0 1 3 0V15h1v-.503A1.5 1.5 0 0 1 21.5 13c.834 0 1.5.67 1.5 1.497V16h1v-.498a1.5 1.5 0 1 1 3 0V21.5a7.5 7.5 0 0 1-7.5 7.5z" fill="#929292" fill-rule="evenodd"/></svg>
